packages/icons/src/SVG/dashboard.svg

<svg width="12" height="12" viewBox="0 0 12 12" fill="none" xmlns="http://www.w3.org/2000/svg">
<path fill-rule="evenodd" clip-rule="evenodd" d="M6 7.99976C6.82837 7.99976 7.5 7.32813 7.5 6.49976C7.5 6.31338 7.46625 6.13451 7.404 5.96988L8.99325 4.38063L8.286 3.67338L6.75562 5.20376C6.53362 5.07401 6.27562 4.99976 6 4.99976C5.17163 4.99976 4.5 5.67138 4.5 6.49976C4.5 7.32813 5.17163 7.99976 6 7.99976ZM6.75 6.49975C6.75 6.91413 6.41438 7.24975 6 7.24975C5.58563 7.24975 5.25 6.91413 5.25 6.49975C5.25 6.08538 5.58563 5.74975 6 5.74975C6.41438 5.74975 6.75 6.08538 6.75 6.49975Z" fill="#4C505B"/>
<path d="M11.1971 10C11.7075 9.11762 12 8.09275 12 7C12 3.68613 9.31387 1 6 1C2.68613 1 0 3.68613 0 7C0 8.09275 0.292125 9.11762 0.8025 10H11.1971ZM10.9999 7C10.9999 7.711 10.8514 8.3875 10.584 8.99988H1.416C1.14825 8.3875 1.00013 7.711 1.00013 7H2.50012C2.50012 6.65238 2.55075 6.31675 2.64488 5.99988H1.09987C1.2885 5.06988 1.7355 4.234 2.36212 3.5695L3.42337 4.63075C3.65062 4.38363 3.91312 4.1695 4.20262 3.99588L3.11925 2.9125C3.8055 2.428 4.61888 2.11225 5.49975 2.0245V3.53538C5.66288 3.51213 5.83012 3.49975 5.99962 3.49975C6.16912 3.49975 6.33638 3.51175 6.4995 3.53538V2.0245C8.6925 2.24238 10.4685 3.87663 10.8994 5.99988H9.35437C9.4485 6.31675 9.4995 6.65238 9.4995 7H10.9999Z" fill="#4C505B"/>
</svg>

<!-- Generated by IcoMoon.io -->
<svg version="1.1" xmlns="http://www.w3.org/2000/svg" width="12" height="12" viewBox="0 0 12 12">
<title>dashboard</title>
<path d="M6 8c0.828 0 1.5-0.672 1.5-1.5 0-0.186-0.034-0.365-0.096-0.53l1.589-1.589-0.707-0.707-1.53 1.53c-0.222-0.13-0.48-0.204-0.756-0.204-0.828 0-1.5 0.672-1.5 1.5s0.672 1.5 1.5 1.5zM6.75 6.5c0 0.414-0.336 0.75-0.75 0.75s-0.75-0.336-0.75-0.75c0-0.414 0.336-0.75 0.75-0.75s0.75 0.336 0.75 0.75z"></path>
<path d="M11.197 10c0.51-0.882 0.803-1.907 0.803-3 0-3.314-2.686-6-6-6s-6 2.686-6 6c0 1.093 0.292 2.118 0.802 3h10.395zM11 7c0 0.711-0.149 1.387-0.416 2h-9.168c-0.268-0.612-0.416-1.289-0.416-2h1.5c0-0.348 0.051-0.683 0.145-1h-1.545c0.189-0.93 0.636-1.766 1.262-2.43l1.061 1.061c0.227-0.247 0.49-0.461 0.779-0.635l-1.083-1.083c0.686-0.484 1.5-0.8 2.38-0.888v1.511c0.163-0.023 0.33-0.036 0.5-0.036s0.337 0.012 0.5 0.036v-1.511c2.193 0.218 3.969 1.852 4.4 3.975h-1.545c0.094 0.317 0.145 0.652 0.145 1h1.5z"></path>
</svg>
